src/main/webapp/img/lib/ibm/vpc/ObjectStorage.svg

<?xml version="1.0" encoding="UTF-8" standalone="no"?>
<!-- Generated by Microsoft Visio, SVG Export BareMetalServer.svg Page-1 -->

<svg
   xmlns:v="http://schemas.microsoft.com/visio/2003/SVGExtensions/"
   xmlns:dc="http://purl.org/dc/elements/1.1/"
   xmlns:cc="http://creativecommons.org/ns#"
   xmlns:rdf="http://www.w3.org/1999/02/22-rdf-syntax-ns#"
   xmlns:svg="http://www.w3.org/2000/svg"
   xmlns="http://www.w3.org/2000/svg"
   xmlns:sodipodi="http://sodipodi.sourceforge.net/DTD/sodipodi-0.dtd"
   xmlns:inkscape="http://www.inkscape.org/namespaces/inkscape"
   width="1.0416666in"
   height="1.0416666in"
   viewBox="0 0 74.99995 74.999981"
   xml:space="preserve"
   class="st2"
   version="1.1"
   id="svg1220"
   sodipodi:docname="ObjectStorage.svg"
   style="font-size:12px;overflow:visible;color-interpolation-filters:sRGB;fill:none;fill-rule:evenodd;stroke-linecap:square;stroke-miterlimit:3"
   inkscape:version="0.92.3 (2405546, 2018-03-11)"><metadata
   id="metadata1226"><rdf:RDF><cc:Work
       rdf:about=""><dc:format>image/svg+xml</dc:format><dc:type
         rdf:resource="http://purl.org/dc/dcmitype/StillImage" /><dc:title></dc:title></cc:Work></rdf:RDF></metadata><defs
   id="defs1224">
		
		
		
	
			
			
			
			
		
				
				
				
			
					<defs
   id="defs1171">
						<path
   id="mfid20"
   d="m 639960,101770 c 146430,135680 146430,355690 0,491360 -146390,135720 -383760,135720 -530150,0 -146426,-135670 -146426,-355680 0,-491360 146390,-135707 383760,-135707 530150,0 z"
   inkscape:connector-curvature="0" />
					</defs>
					
				
						
						
						
						
					
							
						
							
						
							
						
							
						</defs><sodipodi:namedview
   pagecolor="#ffffff"
   bordercolor="#666666"
   borderopacity="1"
   objecttolerance="10"
   gridtolerance="10"
   guidetolerance="10"
   inkscape:pageopacity="0"
   inkscape:pageshadow="2"
   inkscape:window-width="1920"
   inkscape:window-height="1017"
   id="namedview1222"
   showgrid="false"
   fit-margin-top="0"
   fit-margin-left="0"
   fit-margin-right="0"
   fit-margin-bottom="0"
   inkscape:zoom="5.6568542"
   inkscape:cx="47.946162"
   inkscape:cy="40.413132"
   inkscape:window-x="-8"
   inkscape:window-y="-8"
   inkscape:window-maximized="1"
   inkscape:current-layer="svg1220" />
	<v:documentProperties
   v:langID="1033"
   v:viewMarkup="false" />

	<style
   type="text/css"
   id="style1162">
	<![CDATA[
		.st1 {fill:none;stroke:none;stroke-linecap:round;stroke-linejoin:round;stroke-width:0.75}
		.st2 {fill:none;fill-rule:evenodd;font-size:12px;overflow:visible;stroke-linecap:square;stroke-miterlimit:3}
	]]>
	</style><circle
   style="font-size:12px;overflow:visible;color-interpolation-filters:sRGB;fill:#90c34b;fill-opacity:1;fill-rule:evenodd;stroke:none;stroke-width:1.00000024;stroke-linecap:square;stroke-miterlimit:3;opacity:1"
   r="37.499981"
   cx="37.499981"
   cy="37.499981"
   id="circle1396" />

	
<path
   id="path203"
   style="opacity:1;fill:#ffffff;stroke:none;stroke-width:0.74999964px;stroke-linecap:butt;stroke-linejoin:miter;stroke-opacity:1"
   d="M 60.843722,56.953095 V 24.304674 L 42.93748,15.070302 49.00779,11.976553 67.371063,21.35155 V 53.695285 Z M 37.714941,34.24619 21.855114,26.040713 39.838044,16.808698 55.638243,24.915713 Z M 39.15375,55.881146 V 36.679668 L 58.01323,26.765609 V 46.180381 Z M 18.738617,47.029329 V 27.688404 l 17.347071,8.88545 v 19.45076 z M 7.6289027,41.343728 V 21.328112 L 37.406233,5.9531192 45.749979,10.312492 15.773431,25.82811 v 19.640616 z m 0,12.304682 V 44.554664 L 37.642963,59.960649 58.01323,49.335912 V 58.40622 L 37.42967,68.882777 Z"
   inkscape:connector-curvature="0"
   sodipodi:nodetypes="cccccccccccccccccccccccccccccccccccc" /></svg>

<svg xmlns="http://www.w3.org/2000/svg" width="100.032" height="100.032" viewBox="0 0 75 75" fill="none" fill-rule="evenodd" overflow="visible" stroke-linecap="square" stroke-miterlimit="3" color-interpolation-filters="sRGB"><circle r="37.5" cx="37.5" cy="37.5" color-interpolation-filters="sRGB" fill="#90c34b"/><path d="M60.844 56.953V24.305L42.937 15.07l6.07-3.094 18.363 9.375v32.344zm-23.13-22.707l-15.86-8.205 17.983-9.232 15.8 8.107zm1.44 21.635v-19.2l18.86-9.914V46.18zM18.74 47.03v-19.34l17.347 8.885v19.45zm-11.1-5.686V21.328L37.406 5.953l8.344 4.36-29.977 15.516v19.64zm0 12.305v-9.094L37.643 59.96l20.37-10.625v9.07L37.43 68.883z" fill="#fff"/></svg>
